X:1
T:Mr MacFarlane Of Skye
L:1/8
M:4/4
I:linebreak $
K:Bmin
V:1 treble 
V:1
 F |"Bm" B>B Bc A>A Ac | B>c de f2 e>d |"A" cA AB cA e>d | c>d ed c2 Bc |"D" d>d de"A" c2 BA |$ %6
"Bm" B>c de f2 e>d |"A" cA AB cA ec |"^F^m" a>f ec |"Bm" B3 :| c |"Em" d3 f"A" e2 dc | %12
"D" d>e fg f2 e>d |$"A" cA AB cA e>d | c>d ed c2 B>c |"Em" d2 de"^F^m" c2 BA | %16
"G" B>c de"D" f2 e>d |"A" cA AB cA ec |"^F^m" a>f ec"^Bm end on G" B3 :| %19
